X: 16328
T: Grumbling Old Man And Woman, The
R: reel
M: 4/4
K: Adorian
|:CA,A,A, CA,A,A,|B,G,G,G, B,G,G,G,|CA,A,A, CA,A,A,|1 ,2,3B,A,G,2A,4:|4B,A,G,2A,2^cd||
K:Amix
|:efed cdef|gfed c2A2|efed cdef|g2aga2cd|
efed cdef|gfed c2A2|=c2B2 AGED|1 ED=C2A,2^cd:|2 ED=C2A,4||

